X: 31569
T: Painter's Polka
R: barndance
M: 4/4
K: Dmajor
|:FG|A2 AB AGFE|F<E D2 DFA[DF]|Acec AceA|Adfd AdfA|
A2- AB A2 G/F/E|F<E D2 DF A2|Acec Ac e2|d2 dc d2:|
|:D/E/F|G2 g2 gfgd|A2 f2 fe d2|c2 ec Acec|d2 f2 fedc|
B2 g2 gf g/f/e|A2 f2 fe d2|A2 ec Ac e/d/c|d2 dc d2:|

